!!!OTL: CHRISTUS DER HERR IM GARTEN GING
!!!ARE: Europa, Mitteleuropa, Deutschland, Pommern, Garz
!!!SCT: E1960
!!!YEM: Copyright 1995, estate of Helmut Schaffrath.
**kern
*ICvox
*Ivox
*M4/4
*k[b-]
*F:
{8f
8f
8f
=1
4e
4f
4g
4a
=2
2.f}
{4f
=3
4g
4a
4b-
4a
=4
4f
4g
4a}
{4g
=5
4g
4g
4a
4g
=6
4f
4e
4d}
{4g
=7
4a
4g
8f
8d
4c
=8
12f
12g
12a
4g
8f}
==
!!!AGN: geistlich, Fest - Lied, Biblischer Stoff, Passion
!!!ONB: ESAC (Essen Associative Code) Database: ERK3
!!!AMT: simple quadruple
!!!AIN: vox
!!!EED: Helmut Schaffrath
!!!EEV: 1.0
*-
